X:72
T:Jack and Betty's Boy Bob's Wedding
R:hornpipe
C: 1993, 2010 L.E. McCullough 
M:4/4 
L:1/8
K:D
AB|:dAFA fedc|BABc d2de|~f3d gfed|eAAG A2AB|
dAFA fedc|BABc d2de|~f3a gfec|1dfec d2AB:|2 dfec d2BA|] 
|:~B3A Bcde|f~A3 BAFA|f~A3 Bcde|fagf egfe|
dAFA fedc|BABc d2de|~f3a bgec|1 dfec d2BA:|2 dfec d2BA|]


